X: 45
T: Beati omnes
N: Derived from Mar2007-Beati_omnes.krn
C: Johannes Martini
%%abc-version 2.0
%%abcx-abcm2ps-target-version 5.9.1 (29 Sep 2008)
%%abc-creator hum2abc beta
%%abcx-conversion-date 2019/02/17 07:19:41
%%abc-edited-by Jesse Rodin
%%abc-edited-by Chris Gage 12-04-2013
%%abcx-initial-encoding-date 2014/10/05/
%%humdrum-veritas 153113126
%%humdrum-veritas-data 889321964
%%linebreak <none>
%%barnumbers 0
L: 1/4
M: 4/2
Q: 1/2=120
%%staves {1 2}
V: 1 clef=treble
V: 2 clef=treble-8
K: C
[V:1] c4c2c2 | 
[V:2] c4e2e2 | 
[V:1] c4c2B2 | 
[V:2] e4e2d2 | 
[V:1] A2B3AA2- | 
[V:2] c2d3cA2 | 
[V:1] A2^G2A4 ||  
[V:2] B4A4 ||  
[V:1] A4G4 | 
[V:2] A4B4 | 
[V:1] A4B4 | 
[V:2] c4d4 | 
[V:1] A2B2c2c2 | 
[V:2] c2d2e2e2 | 
[V:1] c4B2A2 | 
[V:2] c4d2c2 | 
[V:1] G3AB2c2- | 
[V:2] B3cd2c2 | 
[V:1] c2B2c4 | 
[V:2] d4c4 | 
[V:1] z4c4 | 
[V:2] z4e4 | 
[V:1] c2c2c4 | 
[V:2] e2e2e4 | 
[V:1] B2A2B2c2- | 
[V:2] d2c2d2e2 | 
[V:1] cBA2G2A2- | 
[V:2] c4B2A2 | 
[V:1] A2^G2A4 ||  
[V:2] B4A4 ||  
[V:1] A4c2c2 | 
[V:2] c4e2e2 | 
[V:1] c4c2c2 | 
[V:2] e4e2e2 | 
[V:1] c4B2c2 | 
[V:2] e4d2e2 | 
[V:1] d4c4 | 
[V:2] f4c4 | 
[V:1] z4c2c2 | 
[V:2] z4e2e2 | 
[V:1] c2c2c4 | 
[V:2] e2e2e4 | 
[V:1] c2B4A2- | 
[V:2] e4d2c2 | 
[V:1] A2^G2A4 ||  
[V:2] B4A4 ||  
[V:1] A4G2A2 | 
[V:2] A4B2c2 | 
[V:1] B4A2B2 | 
[V:2] d4c2d2 | 
[V:1] c2c2c4 | 
[V:2] e2e2e4 | 
[V:1] B4c2d2- | 
[V:2] d4e2f2 | 
[V:1] dcBAG2c2- | 
[V:2] d3cB2c2 | 
[V:1] c2B2c4 | 
[V:2] d4c4 | 
[V:1] z4c2c2 | 
[V:2] z4e2e2 | 
[V:1] c2c2c4 | 
[V:2] e2e2e4 | 
[V:1] B3AB2c2- | 
[V:2] d4d2e2- | 
[V:1] c2BAG2A2- | 
[V:2] e2dcB2A2 | 
[V:1] A2^G2A4 ||  
[V:2] B4A4 ||  
[V:1] c2c2c4 | 
[V:2] c2c2e4 | 
[V:1] c4c2c2 | 
[V:2] e4e2c2 | 
[V:1] B2c2d4 | 
[V:2] d2e2f4 | 
[V:1] c4z4 | 
[V:2] c4z4 | 
[V:1] c4c2B2- | 
[V:2] e4e4 | 
[V:1] B2A4^G2 | 
[V:2] d2c2B4 | 
[V:1] A8 ||  
[V:2] A8 ||  
[V:1] A4G2A2 | 
[V:2] A4B2c2 | 
[V:1] B4A4 | 
[V:2] d4c4 | 
[V:1] c2c2B4 | 
[V:2] e2e2d4 | 
[V:1] A3Bc2d2- | 
[V:2] c3de2d2 | 
[V:1] d2^c2d4 | 
[V:2] e4d4 | 
[V:1] z4c4 | 
[V:2] z4e4 | 
[V:1] c2c2c2c2 | 
[V:2] e2e2e2e2 | 
[V:1] c2c2c2c2 | 
[V:2] e2e2e2e2 | 
[V:1] c4z2c2 | 
[V:2] e4z2e2 | 
[V:1] c2c2B4 | 
[V:2] c2c2d4 | 
[V:1] A2B2c2BA | 
[V:2] c2d2e2dc | 
[V:1] G2A4^G2 | 
[V:2] B2A2B4 | 
[V:1] A8 ||  
[V:2] A8 ||  
[V:1] A4c2c2 | 
[V:2] c4e2e2 | 
[V:1] c2c2c2c2 | 
[V:2] e2e2e2c2- | 
[V:1] A2B2c2d2- | 
[V:2] c2d2e2d2 | 
[V:1] d2c4B2 | 
[V:2] f2e2d4 | 
[V:1] c4z4 | 
[V:2] c4z4 | 
[V:1] c2c2c4 | 
[V:2] e2e2e4 | 
[V:1] B2G2A2B2- | 
[V:2] d2B2c2d2- | 
[V:1] BA^G^FG4 | 
[V:2] dcBAB4 | 
[V:1] A8 ||  
[V:2] A8 ||  
[V:1] A4G2A2 | 
[V:2] A4B2c2 | 
[V:1] B4c4 | 
[V:2] d4c2e2- | 
[V:1] B4A4 | 
[V:2] e2d2c2A2 | 
[V:1] G2c4B2 | 
[V:2] B2c2d4 | 
[V:1] c4z4 | 
[V:2] c4z4 | 
[V:1] c4c2c2 | 
[V:2] e4e2e2 | 
[V:1] c4B2d2- | 
[V:2] e4d4 | 
[V:1] dcBAG2A2- | 
[V:2] d3cB2A2 | 
[V:1] A2^G2A4 ||  
[V:2] B4A4 ||  
[V:1] c2c2c2c2 | 
[V:2] c2c2e2e2 | 
[V:1] c2c2c2c2 | 
[V:2] e2e2e2e2 | 
[V:1] c4c4 | 
[V:2] e4c4 | 
[V:1] B2c2d4 | 
[V:2] d2e2f4 | 
[V:1] c4z4 | 
[V:2] c4z4 | 
[V:1] c2c2c2c2 | 
[V:2] e2e2e2e2 | 
[V:1] c4B4 | 
[V:2] e4d4 | 
[V:1] c2d3cBA | 
[V:2] e2f2d3c | 
[V:1] G2A4^G2 | 
[V:2] B2A2B4 | 
[V:1] A8 |]  
[V:2] A8 |]  



